src/16/actions/new-24h-appointment.svg

<svg xmlns="http://www.w3.org/2000/svg" width="16" height="16"><defs><style id="current-color-scheme" type="text/css"></style></defs><path d="M8.5 1A7.5 7.5 0 0 0 1 8.5 7.5 7.5 0 0 0 8.5 16 7.5 7.5 0 0 0 16 8.5 7.5 7.5 0 0 0 8.5 1zM4 4h4v5H5v3h3v1H4V8h3V5H4V4zm5 0h1v4h2V4h1v9h-1V9H9V4z" fill="currentColor" color="#5d656b"/></svg>

<svg xmlns="http://www.w3.org/2000/svg" width="16" height="16" version="1.1" viewBox="0 0 16 16">
 <defs>
  <style id="current-color-scheme" type="text/css">
   .ColorScheme-Text { color:#5d656b; } .ColorScheme-Highlight { color:#5294e2; }
  </style>
 </defs>
 <path style="fill:currentColor" class="ColorScheme-Text" d="M 8.5 1 A 7.5 7.5 0 0 0 1 8.5 A 7.5 7.5 0 0 0 8.5 16 A 7.5 7.5 0 0 0 16 8.5 A 7.5 7.5 0 0 0 8.5 1 z M 4 4 L 7 4 L 8 4 L 8 5 L 8 8 L 8 9 L 5 9 L 5 12 L 8 12 L 8 13 L 4 13 L 4 12 L 4 9 L 4 8 L 5 8 L 7 8 L 7 5 L 4 5 L 4 4 z M 9 4 L 10 4 L 10 8 L 12 8 L 12 4 L 13 4 L 13 8 L 13 9 L 13 13 L 12 13 L 12 9 L 9 9 L 9 8 L 9 4 z"/>
</svg>
